<?xml version="1.0" encoding="UTF-8"?>
<map version="1.10" tiledversion="1.12.2" orientation="orthogonal" renderorder="right-down" width="30" height="20" tilewidth="32" tileheight="32" infinite="0" nextlayerid="7" nextobjectid="1">
 <tileset firstgid="1" source="scifi_hackspace_frama.tsx"/>
 <tileset firstgid="100" source="scifi_space_rpg_tiles_lpcized.tsx"/>
 <layer id="4" name="background-fill" width="30" height="20" visible="0">
  <data encoding="csv">
0,0,0,0,0,0,0,0,0,0,0,0,0,0,0,0,0,0,0,0,0,0,0,0,0,0,0,0,0,0,
0,0,0,0,0,0,0,0,0,0,0,0,0,0,0,0,0,0,0,0,0,0,0,0,0,0,0,0,0,0,
0,0,0,0,0,0,0,0,0,0,0,0,0,0,0,0,0,0,0,0,0,0,0,0,0,0,0,0,0,0,
0,0,0,0,0,0,0,0,0,0,0,0,0,0,0,0,0,0,0,0,0,0,0,0,0,0,0,0,0,0,
0,0,0,0,0,0,0,0,0,0,0,0,0,0,0,0,0,0,0,0,0,0,0,0,0,0,0,0,0,0,
0,0,0,0,0,0,0,0,0,0,0,0,0,0,0,0,0,0,0,0,0,0,0,0,0,0,0,0,0,0,
0,0,0,0,0,0,0,0,0,0,0,0,0,0,0,0,0,0,0,0,0,0,0,0,0,0,0,0,0,0,
0,0,0,0,0,0,0,0,0,0,0,0,0,0,0,0,0,0,0,0,0,0,0,0,0,0,0,0,0,0,
0,0,0,0,0,0,0,0,0,0,0,0,0,0,0,0,0,0,0,0,0,0,0,0,0,0,0,0,0,0,
0,0,0,0,0,0,0,0,0,0,0,0,0,0,0,0,0,0,0,0,0,0,0,0,0,0,0,0,0,0,
0,0,0,0,0,0,0,0,0,0,0,0,0,0,0,0,0,0,0,0,0,0,0,0,0,0,0,0,0,0,
0,0,0,0,0,0,0,0,0,0,0,0,0,0,0,0,0,0,0,0,0,0,0,0,0,0,0,0,0,0,
0,0,0,0,0,0,0,0,0,0,0,0,0,0,0,0,0,0,0,0,0,0,0,0,0,0,0,0,0,0,
0,0,0,0,0,0,0,0,0,0,0,153,0,0,0,0,0,0,0,0,0,0,0,153,0,167,0,0,0,0,
0,0,0,0,0,0,0,0,0,0,0,0,0,0,0,0,0,0,0,0,0,0,0,0,0,0,0,0,0,0,
0,0,0,0,0,0,0,0,0,0,0,0,0,0,0,0,0,0,0,0,0,0,0,0,0,0,0,0,0,0,
0,0,0,0,0,0,0,0,0,0,0,0,0,0,0,0,0,0,0,0,0,0,0,0,0,0,0,0,0,0,
0,0,0,0,0,0,0,0,0,0,0,0,0,0,0,0,0,0,0,0,0,0,0,0,0,0,0,0,0,0,
0,0,0,0,0,0,0,0,0,0,0,0,0,0,0,0,0,0,0,0,0,0,0,0,0,0,0,0,0,0,
0,0,0,0,0,0,0,0,0,0,0,0,0,0,0,0,0,0,0,0,0,0,0,0,0,0,0,0,0,0
</data>
 </layer>
 <layer id="2" name="ground" width="30" height="20">
  <data encoding="csv">
109,109,109,109,109,109,109,109,109,109,109,109,109,109,109,109,109,109,109,109,109,109,109,153,108,152,109,109,109,109,
124,147,58,59,147,124,150,151,124,147,124,147,124,147,124,147,124,147,124,147,124,147,124,107,108,110,124,58,59,147,
138,138,69,70,138,138,164,165,138,138,138,138,138,138,138,138,138,138,138,138,138,138,138,107,108,110,138,69,70,138,
3221225485,3221225492,101,101,101,101,101,101,101,101,101,101,101,101,101,101,101,101,101,101,101,1073741844,1073741837,107,108,110,100,101,1073741844,1073741837,
3221225490,3221225614,89,90,115,1073741916,1073741939,115,89,90,115,1073741916,1073741939,2147483738,2147483737,115,115,115,115,115,115,2147483805,1073741842,107,108,110,114,115,1073741966,1073741842,
114,115,115,115,115,1073741915,1073741939,115,115,115,115,1073741915,1073741939,2684354675,2684354675,115,1,8,101,101,101,102,1073741940,107,108,110,114,115,115,116,
114,115,91,115,115,1073741939,1073741939,115,91,115,115,1073741939,1073741939,2684354675,2684354675,2147483763,6,157,115,115,115,116,1073741940,107,108,110,114,115,115,116,
114,115,92,115,115,1073741913,1073741914,115,92,115,115,1073741913,1073741914,2684354675,2684354675,2147483763,1073741938,115,115,115,115,116,1073741940,107,108,110,114,115,115,116,
114,115,115,115,115,115,115,115,115,115,115,115,115,2684354675,2684354675,115,17,143,115,115,142,18,1073741940,107,108,110,114,115,115,116,
114,115,115,115,115,115,115,115,115,115,115,115,115,89,90,2147483763,12,19,129,129,20,13,1073741940,107,108,110,114,115,115,116,
1073741933,1073741933,1073741933,1073741933,1073741933,1073741933,1073741933,1073741933,1073741933,1073741933,1073741933,3221225578,143,115,115,2147483763,1073741836,1073741843,1073741953,1073741953,1073741844,1073741837,1073741940,107,108,110,114,115,115,116,
109,109,109,109,109,109,109,109,109,109,109,2147483754,114,91,115,115,1073741841,1073741967,1073741939,1073741939,1073741966,1073741842,1073741940,106,109,111,114,115,115,116,
124,147,124,147,124,147,124,147,124,147,124,125,114,92,115,115,1073741938,1073741939,1073741939,1073741939,1073741939,1073741940,1073741940,120,124,125,114,115,115,116,
138,138,138,138,138,138,138,138,138,138,138,2147483782,114,2684354675,2684354675,2147483763,1073741830,1073741981,1073741939,1073741939,1073741939,1073741940,1073741940,134,138,2147483782,114,115,115,116,
2147483750,101,101,101,101,101,101,536870913,536870918,536871026,536870929,536870924,1073741967,2684354675,2684354675,2147483763,1073741825,1073741832,1073741925,1073741925,1073741925,1073741926,1073741966,101,101,101,1073741967,115,115,116,
114,536871001,536871027,115,115,115,115,536870920,536871069,536871027,536871055,536870931,115,2684354675,2684354675,115,115,115,115,115,115,115,115,115,115,115,115,115,115,116,
114,536871002,536871027,115,115,115,115,536871013,536871027,536871027,536871027,536871041,115,2684354675,2684354675,115,115,115,115,115,115,115,115,115,115,115,115,115,115,116,
114,115,1610612826,1610612851,1610612851,1610612851,115,536871013,536871027,536871027,536871027,536871041,115,3221225562,3221225561,115,115,115,115,115,115,115,115,115,115,115,115,115,115,116,
17,143,1610612825,1610612851,1610612827,1610612828,2684354675,536871013,536871027,536871027,536871054,536870932,115,115,115,115,115,115,115,115,115,115,115,115,115,115,115,115,142,18,
12,19,129,129,129,129,129,536871014,536871028,536871028,536870930,536870925,129,129,129,129,129,129,129,129,129,129,129,129,129,129,129,129,20,13
</data>
 </layer>
 <layer id="3" name="tables" width="30" height="20">
  <data encoding="csv">
0,0,0,0,0,0,0,0,0,0,0,0,0,0,0,0,0,0,0,0,0,0,0,0,0,0,0,0,0,0,
0,0,0,0,0,0,0,0,0,0,0,0,0,0,0,0,0,0,0,0,0,0,0,0,0,0,0,0,0,0,
0,0,0,0,0,0,0,0,0,0,0,0,0,0,0,0,0,0,0,0,0,0,0,0,0,0,0,0,0,0,
0,0,0,0,0,0,0,0,0,0,0,0,0,0,0,0,0,0,0,0,0,0,0,0,0,0,0,0,0,0,
0,0,0,0,0,0,0,0,0,0,0,0,0,0,0,0,0,0,0,0,0,0,0,0,0,0,0,0,0,0,
0,0,0,0,0,0,0,0,0,0,0,0,0,0,0,0,0,0,0,0,0,0,0,0,0,0,0,0,0,0,
0,0,0,0,0,0,0,0,0,0,0,0,0,0,0,0,0,173,174,174,175,0,0,0,0,0,0,0,0,0,
0,0,0,0,0,0,0,0,0,0,0,0,0,0,0,0,0,187,188,188,189,0,0,0,0,0,0,0,0,0,
0,0,0,0,0,0,0,0,0,0,0,0,0,0,0,0,0,201,202,202,203,0,0,0,0,0,0,0,0,0,
0,0,0,0,0,0,0,0,0,0,0,0,0,0,0,0,0,0,0,0,0,0,0,0,0,0,0,0,0,0,
0,0,0,0,0,0,0,0,0,0,0,0,0,0,0,0,0,0,0,0,0,0,0,0,0,0,0,0,0,0,
0,0,0,0,0,0,0,0,0,0,0,0,0,0,0,0,0,173,174,174,175,0,0,0,0,0,0,0,0,0,
0,0,0,0,0,0,0,0,0,0,0,0,0,0,0,0,0,187,188,188,189,0,0,0,0,0,0,0,0,0,
0,0,0,0,0,0,0,0,0,0,0,0,0,0,0,0,0,201,202,202,203,0,0,0,0,0,0,0,0,0,
0,0,0,0,0,0,0,0,0,0,0,0,0,0,0,0,0,0,0,0,0,0,0,0,0,0,0,0,0,0,
0,0,0,0,0,0,0,0,173,174,175,0,0,0,0,0,0,0,0,0,0,0,0,0,0,0,0,0,0,0,
0,0,0,0,0,0,0,0,187,188,189,0,0,0,0,0,0,0,0,0,0,0,0,0,0,0,0,0,0,0,
0,0,0,0,0,0,0,0,187,188,189,0,0,0,0,0,0,0,0,0,0,0,0,0,0,0,0,0,0,0,
0,0,0,0,0,0,0,0,201,202,203,0,0,0,0,0,0,0,0,0,0,0,0,0,0,0,0,0,0,0,
0,0,0,0,0,0,0,0,0,0,0,0,0,0,0,0,0,0,0,0,0,0,0,0,0,0,0,0,0,0
</data>
 </layer>
 <layer id="5" name="decoration" width="30" height="20">
  <data encoding="csv">
0,0,0,0,0,0,0,0,0,0,0,0,0,0,0,0,0,0,0,0,0,0,0,0,0,0,0,0,0,0,
0,121,0,0,2147483769,0,122,123,0,2147483769,0,121,0,2147483769,0,170,171,171,171,172,0,2147483769,0,0,0,0,0,0,0,0,
0,135,0,0,2147483783,0,136,137,0,2147483783,0,135,0,2147483783,0,184,185,185,185,186,162,2147483783,0,0,0,0,0,0,0,0,
0,0,0,0,0,0,0,0,0,0,0,0,0,0,0,0,0,0,0,0,0,0,0,0,0,0,0,0,0,0,
0,0,0,0,0,0,0,0,0,0,0,0,0,0,0,0,0,0,0,0,0,0,0,0,0,0,0,0,0,0,
0,0,0,0,0,0,0,0,0,0,0,0,0,0,0,0,0,0,0,0,0,0,0,0,0,0,0,0,0,0,
0,0,0,0,0,0,0,0,0,0,0,0,0,0,0,0,0,176,177,178,0,0,0,0,0,0,0,0,0,0,
0,0,0,0,0,0,0,0,0,0,0,0,0,0,0,0,0,190,191,192,0,0,0,0,0,0,0,0,0,0,
0,0,0,0,0,0,0,0,0,0,0,0,0,0,0,0,0,0,0,0,0,0,0,0,0,0,0,0,0,0,
0,0,0,0,0,0,0,0,0,0,0,0,0,0,0,0,0,0,0,0,0,0,0,0,0,0,0,0,0,0,
0,0,0,0,0,0,0,0,0,0,0,0,0,0,0,0,0,0,0,0,0,0,0,0,0,0,0,0,0,0,
0,0,0,0,0,0,0,0,0,0,0,0,0,0,0,0,0,176,177,178,0,0,0,0,0,0,0,0,0,0,
0,0,0,0,0,0,0,0,0,0,0,0,0,0,0,0,0,190,191,192,0,0,0,0,0,0,0,0,0,0,
0,0,0,0,0,0,0,0,0,0,0,0,0,0,0,0,0,0,0,0,0,0,0,0,127,0,0,0,0,0,
0,0,0,0,0,0,0,0,0,0,0,0,0,0,0,0,0,0,0,0,0,0,0,0,0,0,0,0,0,0,
0,0,0,0,0,0,0,0,0,0,0,0,0,0,0,0,0,0,0,0,0,0,0,0,0,0,0,0,0,0,
0,0,0,0,0,0,0,0,0,0,0,0,0,0,0,0,0,0,0,0,0,0,0,0,0,0,0,0,0,0,
0,0,0,0,0,0,0,0,0,0,0,0,0,0,0,0,0,0,0,0,0,0,0,0,0,0,0,0,0,0,
0,0,0,0,0,0,0,0,0,0,0,0,0,0,0,0,0,0,0,0,0,0,0,0,0,0,0,0,0,0,
0,0,0,0,0,0,0,0,0,0,0,0,0,0,0,0,0,0,0,0,0,0,0,0,0,0,0,0,0,0
</data>
 </layer>
 <layer id="1" name="navmesh" width="30" height="20" visible="0">
  <data encoding="csv">
0,0,0,0,0,0,0,0,0,0,0,0,0,0,0,0,0,0,0,0,0,0,0,0,0,0,0,0,0,0,
0,0,0,0,0,0,0,0,0,0,0,0,0,0,0,0,0,0,0,0,0,0,0,0,0,0,0,0,0,0,
0,0,0,0,0,0,0,0,0,0,0,0,0,0,0,0,0,0,0,0,0,0,0,0,0,0,0,0,0,0,
132,132,132,132,132,132,132,132,132,132,132,132,132,132,132,132,132,132,132,132,132,132,132,0,0,0,132,132,132,132,
132,132,132,132,132,132,132,132,132,132,132,132,132,132,132,132,132,132,132,132,132,132,132,0,0,0,132,132,132,132,
132,132,132,132,132,132,132,132,132,132,132,132,132,132,132,132,132,132,132,132,132,132,132,0,0,0,132,132,132,132,
132,132,132,132,132,132,132,132,132,132,132,132,132,132,132,132,132,0,0,0,0,132,132,0,0,0,132,132,132,132,
132,132,132,132,132,132,132,132,132,132,132,132,132,132,132,132,132,0,0,0,0,132,132,0,0,0,132,132,132,132,
132,132,132,132,132,132,132,132,132,132,132,132,132,132,132,132,132,0,0,0,0,132,132,0,0,0,132,132,132,132,
132,132,132,132,132,132,132,132,132,132,132,132,132,132,132,132,132,132,132,132,132,132,132,0,0,0,132,132,132,132,
0,0,0,0,0,0,0,0,0,0,0,0,132,132,132,132,132,132,132,132,132,132,132,0,0,0,132,132,132,132,
0,0,0,0,0,0,0,0,0,0,0,0,132,132,132,132,132,0,0,0,0,132,132,0,0,0,132,132,132,132,
0,0,0,0,0,0,0,0,0,0,0,0,132,132,132,132,132,0,0,0,0,132,132,0,0,0,132,132,132,132,
0,0,0,0,0,0,0,0,0,0,0,0,132,132,132,132,132,0,0,0,0,132,132,0,0,0,132,132,132,132,
132,132,132,132,132,132,132,132,132,132,132,132,132,132,132,132,132,132,132,132,132,132,132,132,132,132,132,132,132,132,
132,132,132,132,132,132,132,132,0,0,0,132,132,132,132,132,132,132,132,132,132,132,132,132,132,132,132,132,132,132,
132,132,132,132,132,132,132,132,0,0,0,132,132,132,132,132,132,132,132,132,132,132,132,132,132,132,132,132,132,132,
132,132,132,132,132,132,132,132,0,0,0,132,132,132,132,132,132,132,132,132,132,132,132,132,132,132,132,132,132,132,
132,132,132,132,132,132,132,132,0,0,0,132,132,132,132,132,132,132,132,132,132,132,132,132,132,132,132,132,132,132,
132,132,132,132,132,132,132,132,132,132,132,132,132,132,132,132,132,132,132,132,132,132,132,132,132,132,132,132,132,132
</data>
 </layer>
 <layer id="6" name="structures" width="30" height="20" visible="0">
  <data encoding="csv">
0,0,0,0,0,0,0,0,0,0,0,0,0,0,0,0,0,0,0,0,0,0,0,0,0,0,0,0,0,0,
0,0,0,0,0,0,0,0,0,0,0,0,0,0,0,0,0,0,0,0,0,0,0,0,0,0,0,0,0,0,
0,0,0,0,0,0,0,0,0,0,0,0,0,0,0,0,0,0,0,0,0,0,0,0,0,0,0,0,0,0,
0,0,0,0,0,0,0,0,0,0,0,0,0,0,0,0,0,0,0,0,0,0,0,0,0,0,0,0,0,0,
0,0,0,0,0,0,0,0,0,0,0,0,0,0,0,0,0,0,0,0,0,0,0,0,0,0,0,0,0,0,
0,0,0,0,0,0,0,0,0,0,0,0,0,0,0,0,0,0,0,0,0,0,0,0,0,0,0,0,0,0,
0,0,0,0,0,0,0,0,0,0,0,0,0,0,0,0,0,0,0,0,0,0,0,0,0,0,0,0,0,0,
0,0,0,0,0,0,0,0,0,0,0,0,0,0,0,0,0,0,0,0,0,0,0,0,0,0,0,0,0,0,
0,0,0,0,0,0,0,0,0,0,0,0,0,0,0,0,0,0,0,0,0,0,0,0,0,0,0,0,0,0,
0,0,0,0,0,0,0,0,0,0,0,0,0,0,0,0,0,0,0,0,0,0,0,0,0,0,0,0,0,0,
0,0,0,0,0,0,0,0,0,0,0,0,0,0,0,0,0,0,0,0,0,0,0,0,0,0,0,0,0,0,
0,0,0,0,0,0,0,0,0,0,0,0,0,0,0,0,0,0,0,0,0,0,0,0,0,0,0,0,0,0,
0,0,0,0,0,0,0,0,0,0,0,0,0,0,0,0,0,0,0,0,0,0,0,0,0,0,0,0,0,0,
0,0,0,0,0,0,0,0,0,0,0,0,0,0,0,0,0,0,0,0,0,0,0,0,0,0,0,0,0,0,
0,0,0,0,0,0,0,0,0,0,0,0,0,0,0,0,0,0,0,0,0,0,0,0,0,0,0,0,0,0,
0,0,0,0,0,0,0,0,0,0,0,0,0,0,0,0,0,0,0,0,0,0,0,0,0,0,0,0,0,0,
0,0,0,0,0,0,0,0,0,0,0,0,0,0,0,0,0,0,0,0,0,0,0,0,0,0,0,0,0,0,
0,0,0,0,0,0,0,0,0,0,0,0,0,0,0,0,0,0,0,0,0,0,0,0,0,0,0,0,0,0,
0,0,0,0,0,0,0,0,0,0,0,0,0,0,0,0,0,0,0,0,0,0,0,0,0,0,0,0,0,0,
0,0,0,0,0,0,0,0,0,0,0,0,0,0,0,0,0,0,0,0,0,0,0,0,0,0,0,0,0,0
</data>
 </layer>
</map>
